X:840
T:Mr Young's Delight.
C:John Malchair's Third Collection of Tunes
F:https://www.vwml.org/record/Malchair/3619/p84
F:www.vwml.org/topics/historic-dance-and-tune-books/Malchair
Z:Eric Conrad Apr 2020
N:Erased following the title are the words "Duplicate p.28."
M:C|
L:1/8
K:F
P:A
c2 | A2F2 F2G2 | A4 d4 | c3d (cd) (cA) | B2 G4 B2 | A2 F4 G2 | A4 d4 |
f3g (fg) (ag) | f2 c4 f2 | d3c (de) (fd) | (cd) (cB) (Ac) (fc) |
(de) (fd) (cd) (cA) | B2G2 G2B2 | A2 F4 A2 | A4 d4 | c3d (cd) (cA) | B2 G4 ||
P:B
(ag) | (fg) (af) (ga) (bg) | (ab) (ga) (fg) (ef) | (de) (fd) (ge) (dc) | G2 c4 B>A |
(Bd) (fd) (Ac) (fc) | (Bd) (fd) (Ac) (fc) | (dc) (BA) (GA) GF | F6 |]


